!!!COM: Said, Zubir
!!!CDT: 1907-1987
!!!OTL: National Anthem, Singapore - Majulah Singapura (May Singapore Progress)
!!!ENC: Davis, Matthew J.
!!Vocal Line Only
**kern
*clefG2
*k[b-]
*F:
*M4/4
=1-
1r
=2
2r
8r
8c
8f
8g
==3
4a
4a
8a
8g
8f
8e
=4
4f
4f
8f
8e
8d
8c
=5
4d
4c
8r
8f
8g
8f
=6
2e
8r
8c
8e
8f
=7
4g
4e
4f
4g
=8
8.a
16dd
2.cc
=9
8.a
16a
4.cc
8c
8e
8g
=10
2.f
==11
8.f
16f
==!|:12
4b-
4dd
4dd
8.cc
16bn
=13
[2cc
8cc]
8c
8e
8f
=14
4g
4e
4f
4g
=15
[2a
8a]
8r
8.f
16f
=16
4b-
4dd
4dd
8.cc
16bn
=17
2.cc
4r
=18
8.a
16g
[4f
8f]
8f
8a
8b-
=19
2.cc
4r
=20
8.cc
16dd
[4cc
8cc]
8b-
8a
8g
=21
!First Ending
2.f
8.f
16f
==:|!22
!Second Ending
2.f
4r
==|!
*-
